public/images/logo/open-source.svg

<svg width="22" height="22" viewBox="0 0 22 22" fill="none" xmlns="http://www.w3.org/2000/svg">
<g clip-path="url(#clip0)">
<path d="M5.93621 10.8076C6.74012 10.437 7.50909 10.2516 8.24271 10.2516H17.9844V8.37813C17.9844 7.66002 17.7268 7.04307 17.2114 6.52786C16.6961 6.0127 16.0797 5.75516 15.3615 5.75516H8.99199V5.3805C8.99199 4.66238 8.73445 4.04572 8.21929 3.53068C7.70409 3.01552 7.08743 2.75781 6.36931 2.75781H2.62268C1.90456 2.75781 1.2879 3.01548 0.772701 3.53068C0.257499 4.04576 0 4.66242 0 5.38054V16.6206C0 16.6519 0.00200947 16.7008 0.00590537 16.7673C0.00976026 16.8335 0.0118107 16.8824 0.0118107 16.9135L0.0702903 16.8436L4.01606 12.2067C4.49218 11.6447 5.13226 11.1782 5.93621 10.8076Z" fill="currentColor"/>
<path d="M21.6896 11.9026C21.4828 11.8009 21.2468 11.75 20.9813 11.75H8.24244C7.72728 11.75 7.16721 11.8887 6.56236 12.1658C5.95747 12.4433 5.48713 12.7804 5.15159 13.1788L1.21755 17.8153C0.975511 18.0885 0.854492 18.3462 0.854492 18.5883C0.854492 18.8224 0.957959 18.9903 1.16477 19.0916C1.37158 19.1932 1.60767 19.244 1.87313 19.244H14.6123C15.1274 19.244 15.6872 19.1053 16.2922 18.8283C16.8971 18.5512 17.3672 18.2136 17.7029 17.8153L21.637 13.1788C21.8789 12.9056 21.9997 12.6482 21.9997 12.4058C21.9999 12.1718 21.8966 12.0041 21.6896 11.9026Z" fill="currentColor"/>
</g>
<defs>
<clipPath id="clip0">
<rect width="22" height="22" fill="white"/>
</clipPath>
</defs>
</svg>

<svg width="22" height="22" fill="none" xmlns="http://www.w3.org/2000/svg"><g clip-path="url(#clip0)" fill="currentColor"><path d="M5.936 10.808c.804-.371 1.573-.556 2.307-.556h9.741V8.378c0-.718-.257-1.335-.773-1.85a2.524 2.524 0 00-1.85-.773H8.992V5.38c0-.718-.258-1.334-.773-1.85a2.524 2.524 0 00-1.85-.772H2.623c-.718 0-1.335.257-1.85.773A2.523 2.523 0 000 5.38v11.24c0 .03.002.08.006.146.004.067.006.115.006.146l.058-.07 3.946-4.636c.476-.562 1.116-1.029 1.92-1.4z"/><path d="M21.69 11.903a1.584 1.584 0 00-.709-.153H8.242c-.515 0-1.075.139-1.68.416-.605.277-1.075.614-1.41 1.013l-3.934 4.636c-.242.273-.364.531-.364.773a.52.52 0 00.31.504c.208.101.444.152.71.152h12.738c.515 0 1.075-.139 1.68-.416.605-.277 1.075-.614 1.41-1.013l3.935-4.636c.242-.273.363-.53.363-.773a.52.52 0 00-.31-.503z"/></g><defs><clipPath id="clip0"><path fill="#fff" d="M0 0h22v22H0z"/></clipPath></defs></svg>
